flaticon/essential/more-1.svg

<svg xmlns="http://www.w3.org/2000/svg" width="32" height="32" viewBox="0 0 24 24">
    <path d="M12 6.398438C13.765625 6.398438 15.199219 4.964844 15.199219 3.199219 15.199219 1.4375 13.765625 0 12 0 10.234375 0 8.800781 1.4375 8.800781 3.199219 8.800781 4.964844 10.234375 6.398438 12 6.398438zM12 .800781C13.324219.800781 14.398438 1.875 14.398438 3.199219 14.398438 4.523438 13.324219 5.601562 12 5.601562 10.675781 5.601562 9.601562 4.523438 9.601562 3.199219 9.601562 1.875 10.675781.800781 12 .800781zM12 17.601562C10.234375 17.601562 8.800781 19.035156 8.800781 20.800781 8.800781 22.5625 10.234375 24 12 24 13.765625 24 15.199219 22.5625 15.199219 20.800781 15.199219 19.035156 13.765625 17.601562 12 17.601562zM12 23.199219C10.675781 23.199219 9.601562 22.125 9.601562 20.800781 9.601562 19.476562 10.675781 18.398438 12 18.398438 13.324219 18.398438 14.398438 19.476562 14.398438 20.800781 14.398438 22.125 13.324219 23.199219 12 23.199219zM12 8.800781C10.234375 8.800781 8.800781 10.234375 8.800781 12 8.800781 13.765625 10.234375 15.199219 12 15.199219 13.765625 15.199219 15.199219 13.765625 15.199219 12 15.199219 10.234375 13.765625 8.800781 12 8.800781zM12 14.398438C10.675781 14.398438 9.601562 13.324219 9.601562 12 9.601562 10.675781 10.675781 9.601562 12 9.601562 13.324219 9.601562 14.398438 10.675781 14.398438 12 14.398438 13.324219 13.324219 14.398438 12 14.398438zM12 14.398438"/>
</svg>

<svg xmlns="http://www.w3.org/2000/svg" width="32" height="32" viewBox="0 0 24 24">
    <path d="M12 6.398A3.2 3.2 0 0 0 15.2 3.2C15.2 1.438 13.765 0 12 0a3.203 3.203 0 0 0-3.2 3.2A3.2 3.2 0 0 0 12 6.397zm0-5.597a2.399 2.399 0 0 1 2.398 2.398A2.402 2.402 0 0 1 12 5.602a2.402 2.402 0 0 1-2.398-2.403A2.399 2.399 0 0 1 12 .801zm0 0M12 17.602A3.2 3.2 0 0 0 8.8 20.8C8.8 22.563 10.235 24 12 24c1.766 0 3.2-1.438 3.2-3.2a3.2 3.2 0 0 0-3.2-3.198zm0 5.597a2.399 2.399 0 0 1-2.398-2.398A2.402 2.402 0 0 1 12 18.398a2.402 2.402 0 0 1 2.398 2.403A2.399 2.399 0 0 1 12 23.199zm0 0M12 8.8A3.2 3.2 0 0 0 8.8 12a3.2 3.2 0 0 0 3.2 3.2 3.2 3.2 0 0 0 3.2-3.2A3.2 3.2 0 0 0 12 8.8zm0 5.598a2.399 2.399 0 1 1 .001-4.797A2.399 2.399 0 0 1 12 14.398zm0 0"/>
</svg>
